!!!COM: Mozart, Wolfgang Amadeus
!!!CDT: 1756/01/27/-1791/12/05/
!!!CNT: German
!!!OTL: Piano Sonata No. 15 in C major
!!!ONB: Sonata No. 16 in NMA
!!!SCT1: K 545
!!!OMV: 1
!!!OMD: Allegro
!!!ODT: 1788///
**kern	**kern	**dynam
*>[A,A,B,B]	*>[A,A,B,B]	*
*>norep[A,B]	*>norep[A,B]	*
*>A	*>A	*
*Ipiano	*Ipiano	*
*staff2	*staff1	*
*clefG2	*clefG2	*
*k[]	*k[]	*
*C:	*C:	*
*met(c)	*met(c)	*
*M4/4	*M4/4	*
*MM120	*MM120	*
=1-	=1-	=
(8cL	(2cc	p
8g	.	.
8e	.	.
8gJ	.	.
8cL	4ee)	.
8g	.	.
8e	4gg	.
8gJ	.	.
=2	=2	=
8dL	(4.b	.
8g	.	.
8f	.	.
8gJ	16ccLL	.
.	16ddJJ)	.
8cL	4cc	.
8g	.	.
8e	4r	.
8gJ	.	.
=3	=3	=
8cL	(2aa	.
8a	.	.
8f	.	.
8aJ	.	.
8cL	4gg)	.
8g	.	.
8e	4ccc	.
8gJ	.	.
=4	=4	=
8BL	(4gg	.
8g	.	.
8d	8ffTL	.
8gJ	16eeL	.
.	16ffJJ)	.
8cL	4ee	.
8g	.	.
8e	4r	.
8gJ	.	.
=5	=5	=
4f)	(8aL	.
.	16bL	.
.	16ccJJ	.
4r	16ddLL	.
.	16ee	.
.	16ff	.
.	16ggJJ	.
4r	16aaLL	.
.	16gg	.
.	16ff	.
.	16eeJJ	.
*clefF4	*	*
4F 4c	16ddLL	.
.	16cc	.
.	16b	.
.	16aJJ	.
=6	=6	=
4E 4c	8gL	.
.	16aL	.
.	16bJJ	.
4r	16ccLL	.
.	16dd	.
.	16ee	.
.	16ffJJ	.
4r	16ggLL	.
.	16ff	.
.	16ee	.
.	16ddJJ	.
4E 4c	16ccLL	.
.	16b	.
.	16a	.
.	16gJJ	.
=7	=7	=
4D 4c	8fL	.
.	16gL	.
.	16aJJ	.
4r	16bLL	.
.	16cc	.
.	16dd	.
.	16eeJJ	.
4r	16ffLL	.
.	16ee	.
.	16dd	.
.	16ccJJ	.
4D 4B	16bLL	.
.	16a	.
.	16g	.
.	16fJJ	.
=8	=8	=
4C 4c	8eL	.
.	16fL	.
.	16gJJ	.
4r	16aLL	.
.	16b	.
.	16cc	.
.	16ddJJ	.
4r	16eeLL	.
.	16dd	.
.	16cc	.
.	16bJJ	.
4C 4E	16aLL	.
.	16g	.
.	16f	.
.	16eJJ	.
=9	=9	=
1F 1A	8dL	<
.	16eL	.
.	16fJJ	.
.	16gLL	.
.	16a	.
.	16b	.
.	16cc#JJ	.
.	16ddLL	.
.	16a	.
.	16b	.
.	16cc#JJ	.
.	16ddLL	.
.	16ee	.
.	16ff	.
.	16ggJJ	.
=10	=10	=
4.F	16aaLL	.
.	16bb	.
.	16cccn	.
.	16bbJJ	.
.	16aaLL	.
.	16gg	.
8G	16ff	.
.	16eeJJ	.
4.A	16ffLL	.
.	16gg	.
.	16aa	.
.	16ggJJ	.
.	16ffLL	.
.	16ee	.
8F#	16dd	.
.	16ccJJ	.
=11	=11	=
16GGLL	8b'L)	f
16BB	.	.
16D	8gg'	.
16GJJ	.	.
16GGLL	8ee'	.
16C	.	.
16E	8cc'J	.
16GJJ	.	.
16GGLL	8dd'L	.
16BB	.	.
16D	8gg'	.
16GJJ	.	.
16GGLL	8ee'	.
16C	.	.
16E	8cc'J	.
16GJJ	.	.
=12	=12	=
4GG'	4dd'	.
4G'	4b' 4dd' 4gg'	.
4GG'	4g'	.
4r	4r	.
=13	=13	=
!LO:TX:i:t=legato	!	!
16c#LL	1r	p
16d	.	.
16c#	.	.
16dJJ	.	.
16c#LL	.	.
16d	.	.
16c#	.	.
16dJJ	.	.
16cnLL	.	.
16d	.	.
16c	.	.
16dJJ	.	.
16cLL	.	.
16d	.	.
16c	.	.
16dJJ	.	.
=14	=14	=
16BLL	(8dddL	.
16d	.	.
16B	8bbJ)	.
16dJJ	.	.
16BLL	(4.gg	.
16d	.	.
16B	.	.
16dJJ	.	.
16BLL	.	.
16d	.	.
16B	16aaLL	.
16dJJ	16bbJJ	.
16BLL	8aaL)	.
16d	.	.
16B	8gg'J	.
16dJJ	.	.
=15	=15	=
16cLL	(8.ggTL	.
16d	.	.
16B	.	.
16dJJ	16ff#Jk)	.
16ALL	4ff#	.
16d	.	.
16B	.	.
16dJJ	.	.
16cLL	2r	.
16d	.	.
16B	.	.
16dJJ	.	.
16cLL	.	.
16d	.	.
16A	.	.
16dJJ	.	.
=16	=16	=
16BLL	(8dddL	.
16d	.	.
16B	8bbJ)	.
16dJJ	.	.
16BLL	(4.gg	.
16d	.	.
16B	.	.
16dJJ	.	.
16BLL	.	.
16d	.	.
16B	16aaLL	.
16dJJ	16bbJJ	.
16BLL	8aaL)	.
16d	.	.
16B	8gg'J	.
16dJJ	.	.
=17	=17	=
16cLL	(8.ggTL	.
16d	.	.
16B	.	.
16dJJ	16ff#Jk)	.
16ALL	4ff#	.
16d	.	.
16B	.	.
16dJJ	.	.
16cLL	2r	.
16d	.	.
16B	.	.
16dJJ	.	.
16cLL	.	.
16d	.	.
16A	.	.
16dJJ	.	.
*clefG2	*	*
=18	=18	=
16r	4ddd	.
(16BLL	.	.
16d	.	.
16gJJ	.	.
4b)	16r	.
.	(16dddLL	.
.	16bb	.
.	16ggJJ	.
16r	4ee)	.
(16cLL	.	.
16e	.	.
16gJJ	.	.
4cc)	16r	.
.	(16eeLL	.
.	16gg	.
.	16eeJJ	.
=19	=19	=
16r	4ccc)	.
(16ALL	.	.
16c	.	.
16f#JJ	.	.
4a)	16r	.
.	(16cccLL	.
.	16aa	.
.	16ff#JJ	.
16r	4dd)	.
(16BLL	.	.
16d	.	.
16f#JJ	.	.
4b)	16r	.
.	(16ddLL	.
.	16ff#	.
.	16ddJJ	.
=20	=20	=
16r	4bb)	.
(16GLL	.	.
16B	.	.
16eJJ	.	.
4g)	16r	.
.	(16bbLL	.
.	16gg	.
.	16eeJJ	.
16r	4cc)	.
(16ALL	.	.
16c	.	.
16eJJ	.	.
4a)	16r	.
.	(16ccLL	.
.	16ee	.
.	16ccJJ	.
=21	=21	=
16r	4aa)	.
(16F#LL	.	.
16A	.	.
16dJJ	.	.
4f#)	16r	.
.	(16aaLL	.
.	16ff#	.
.	16ddJJ	.
16r	4b)	.
(16GLL	.	.
16B	.	.
16dJJ	.	.
4g)	16r	.
.	(16ggLL	.
.	16dd	.
.	16bJJ	.
=22	=22	=
8c 8eL	2a)	<
8c 8e	.	.
8c 8e	.	.
8c 8eJ	.	.
8c 8eL	(16bLk	.
.	8.ccJ)	.
8c 8e	.	.
8c 8e	(16dd#Lk	.
.	8.eeJ)	.
8c 8eJ	.	.
=23	=23	=
8c 8eL	(16gg#Lk	.
.	[8.aaJ)	.
8c 8e	.	.
8c 8e	8aa]L	.
8c 8eJ	(32bbLL	.
.	32aa	.
.	32gg	.
.	32aaJJJ	.
8c 8eL	8cccL	.
8c 8e	8aa)	.
8c 8e	(8ccc	.
8c 8eJ	8aaJ)	.
=24	=24	=
(16dLL	(8bbL	.
16b	.	.
16g	8ggnJ)	.
16bJJ	.	.
16dLL	(2ddd	.
16b	.	.
16g	.	.
16bJJ	.	.
16dLL	.	.
16b	.	.
16g	.	.
16bJJ	.	.
16dLL	16cccLL	.
16b	16bb	.
16g	16aa	.
16bJJ	16ggJJ)	.
=25	=25	=
16dLL	(1aaTT	.
16cc	.	.
16f#	.	.
16ccJJ	.	.
16dLL	.	.
16cc	.	.
16f#	.	.
16ccJJ	.	.
16dLL	.	.
16cc	.	.
16f#	.	.
16ccJJ	.	.
16dLL	.	.
16cc	.	.
16f#	.	.
16ccJJ	.	.
.	16ggqLL	.
.	16aaqJJ	.
=26	=26	=
4g 4b)	4gg)	f
4r	(16ggLL	.
.	16dd	.
.	16gg	.
.	16bbJJ	.
4r	16dddLL	.
.	16bb	.
.	16gg	.
.	16bbJJ	.
(4d 4a 4cc	16cccLL	.
.	16aa	.
.	16ff#	.
.	16aaJJ	.
=27	=27	=
4g 4b)	4gg)	.
4r	(16gLL	.
.	16d	.
.	16g	.
.	16bJJ	.
4r	16ddLL>	.
.	16b	.
.	16g	.
.	16bJJ	.
*clefF4	*	*
(4D 4A 4c	16ccLL	.
.	16a	.
.	16f#	.
.	16aJJ	.
=28	=28	=
4G 4B)	4g')	.
4GG' 4G'	4dd' 4bb'	.
4GG' 4G'	4b' 4gg'	.
4r	4r	.
=29:|!|:	=29:|!|:	=
*>B	*>B	*
4GG 4G	4g	.
4r	(16ggLL	.
.	16dd	.
.	16gg	.
.	16bb-JJ	.
4r	16dddLL	.
.	16bb-	.
.	16gg	.
.	16bb-JJ	.
*clefG2	*	*
(4d 4a 4cc	16cccLL	.
.	16aa	.
.	16ff#	.
.	16aaJJ	.
=30	=30	=
4g 4b-)	4gg)	.
4r	(16gLL	.
.	16d	.
.	16g	.
.	16b-JJ	.
4r	16ddLL>	.
.	16b-	.
.	16g	.
.	16b-JJ	.
*clefF4	*	*
4D 4A 4c	16ccLL	.
.	16a	.
.	16f#	.
.	16aJJ	.
=31	=31	=
16r	4g)	.
(16GGLL	.	.
16AA	.	.
16BB-JJ	.	.
16CLL	4r	.
16D	.	.
16E	.	.
16F#JJ	.	.
4G)	16r	.
.	(16ggLL	.
.	16bb-	.
.	16aaJJ	.
4r	16ggLL	.
.	16ffn	.
.	16ee	.
.	16ddJJ	.
=32	=32	=
16r	4cc#)	.
(16AALL	.	.
16BBn	.	.
16C#JJ	.	.
16DLL	4r	.
16E	.	.
16F#	.	.
16G#JJ	.	.
4A)	16r	.
.	(16ccc#LL	.
.	16eee	.
.	16dddJJ	.
4r	16ccc#LL	.
.	16bb-	.
.	16aa	.
.	16ggJJ	.
=33	=33	=
4DD 4D	4ffn)	.
4r	(16ddLL	.
.	16a	.
.	16dd	.
.	16ffJJ	.
4r	16aaLL	.
.	16ff	.
.	16dd	.
.	16ffJJ	.
*clefG2	*	*
(4A 4e 4g	16ggLL	.
.	16ee	.
.	16cc#	.
.	16eeJJ	.
=34	=34	=
4d 4f)	4dd)	.
4r	(16dLL	.
.	16A	.
.	16d	.
.	16fJJ	.
4r	16aLL	.
.	16f	.
.	16d	.
.	16fJJ	.
*clefF4	*	*
(4AA 4E 4G	16gLL	.
.	16e	.
.	16c#	.
.	16eJJ)	.
=35	=35	=
4D 4F)	16r	.
.	(16dLL	.
.	16e	.
.	16fJJ	.
4r	16gLL<	.
.	16a	.
.	16b	.
.	16cc#JJ	.
16r	4dd)	.
(16dLL	.	.
16f	.	.
16eJJ	.	.
16dLL	4r	.
16cn	.	.
16B	.	.
16AJJ	.	.
=36	=36	=
4G#)	16r	.
.	(16bLL	.
.	16ccn	.
.	16ddJJ	.
4r	16eeLL	.
.	16ff#	.
.	16gg#	.
.	16aaJJ	.
16r	4bb)	.
(16G#LL	.	.
16B	.	.
16AJJ	.	.
16G#LL	4r	.
16Fn	.	.
16E	.	.
16DJJ	.	.
=37	=37	=
4C)	16r	.
.	(16aaLL	.
.	16eee	.
.	16dddJJ	.
4r	16cccLL	.
.	16bb	.
.	16aa	.
.	16ggnJJ	.
*clefG2	*	*
16r	4ffn)	.
(16dLL	.	.
16a	.	.
16gJJ	.	.
16fLL	4r	.
16e	.	.
16d	.	.
16cJJ	.	.
=38	=38	=
4B)	16r	.
.	(16ggLL	.
.	16ddd	.
.	16cccJJ	.
4r	16bbLL	.
.	16aa	.
.	16gg	.
.	16ffJJ	.
16r	4ee)	.
(16cLL	.	.
16g	.	.
16fJJ	.	.
16eLL	4r	.
16d	.	.
16c	.	.
16BJJ	.	.
=39	=39	=
4A)	16r	.
.	(16ffLL	.
.	16ccc	.
.	16bbJJ	.
4r	16aaLL	.
.	16gg	.
.	16ff	.
.	16eeJJ	.
*clefF4	*	*
16r	4dd)	.
(16BLL	.	.
16f	.	.
16eJJ	.	.
16dLL	4r	.
16c	.	.
16B	.	.
16AJJ	.	.
=40	=40	=
4G#)	16r	.
.	(16eeLL	.
.	16bb	.
.	16aaJJ	.
4r	16gg#LL	.
.	16ffn	.
.	16ee	.
.	16ddJJ	.
16r	4cc)	.
(16ALL	.	>
16c	.	.
16BJJ	.	.
16ALL	4r	.
16Gn	.	.
16F	.	.
16EJJ	.	.
=41	=41	=
2D)	16r	.
.	(16b-LL	.
.	16dd	.
.	16ccJJ	.
.	16b-LL	.
.	16a	.
.	16g	.
.	16fJJ	.
2C 2G 2B-	16eLL	.
.	16f	.
.	16g	.
.	16aJJ	.
.	16b-LL	.
.	16cc	.
.	16dd	.
.	16eeJJ)	.
*clefG2	*	*
=42	=42	=
(8fL	(2ff	p
8cc	.	.
8a	.	.
8ccJ	.	.
8fL	4aa)	.
8cc	.	.
8a	4ccc	.
8ccJ	.	.
=43	=43	=
8gL	(4.ee	.
8cc	.	.
8b-	.	.
8ccJ	16ffLL	.
.	16ggJJ)	.
8fL	4ff	.
8cc	.	.
8a	4r	.
8ccJ	.	.
=44	=44	=
8fL	(2ddd	.
8dd	.	.
8b-	.	.
8ddJ	.	.
8fL	4ccc)	.
8cc	.	.
8a	4fff	.
8ccJ	.	.
=45	=45	=
8eL	(4ccc	.
8cc	.	.
8g	8bb-TL	.
8ccJ	16aaL	.
.	16bb-JJ	.
8fL	4aa)	.
8cc	.	.
8a	4r	.
8ccJ	.	.
=46	=46	=
4b-/)	(8ddL	.
.	16eeL	.
.	16ffJJ	.
4r	16ggLL	.
.	16aa	.
.	16bb-	.
.	16cccJJ	.
4r	16dddLL	.
.	16ccc	.
.	16bb-	.
.	16aaJJ	.
*clefF4	*	*
4B- 4f	16ggLL	.
.	16ff	.
.	16ee	.
.	16ddJJ	.
=47	=47	=
4A 4f	8ccL	.
.	16ddL	.
.	16eeJJ	.
4r	16ffLL	.
.	16gg	.
.	16aa	.
.	16bb-JJ	.
4r	16cccLL	.
.	16bb-	.
.	16aa	.
.	16ggJJ	.
4A 4f	16ffLL	.
.	16ee	.
.	16dd	.
.	16ccJJ	.
=48	=48	=
4G 4f	8b-L	.
.	16ccL	.
.	16ddJJ	.
4r	16eeLL	.
.	16ff	.
.	16gg	.
.	16aaJJ	.
4r	16bb-LL	.
.	16aa	.
.	16gg	.
.	16ffJJ	.
4G 4e	16eeLL	.
.	16dd	.
.	16cc	.
.	16b-JJ	.
=49	=49	=
4F 4f	8aL	.
.	16b-L	.
.	16ccJJ	.
4r	16ddLL	.
.	16ee	.
.	16ff	.
.	16ggJJ	.
2r	16aaLL	.
.	16gg	.
.	16ff	.
.	16eeJJ	.
.	16ddLL	.
.	16cc	.
.	16b-	.
.	16aJJ	.
=50	=50	=
(8FL	4aa)	.
16GL	.	.
16AJJ	.	.
16B-LL	4r	.
16c	.	.
16d	.	.
16eJJ	.	.
16fLL	4r	.
16e	.	.
16d	.	.
16cJJ	.	.
16B-LL	4cc 4aa	.
16A	.	.
16G	.	.
16FJJ	.	.
=51	=51	=
8EL	4cc 4gg	.
16FL	.	.
16GJJ	.	.
16ALL	4r	.
16Bn	.	.
16c	.	.
16dJJ	.	.
16eLL	4r	.
16d	.	.
16c	.	.
16BJJ	.	.
16ALL	4cc 4gg	.
16G	.	.
16F	.	.
16EJJ	.	.
=52	=52	=
8DL	4cc 4ff	.
16EL	.	.
16FJJ	.	.
16GLL	4r	.
(16A	.	.
16B	.	.
16cJJ)	.	.
16dLL	4r	.
16c	.	.
16B	.	.
16AJJ	.	.
16GLL	4bn 4ff	.
16F	.	.
16E	.	.
16DJJ	.	.
=53	=53	=
8CL	4cc 4ee	.
16DL	.	.
16EJJ	.	.
16FLL	4r	.
16G	.	.
16A	.	.
16BJJ	.	.
16cLL	4r	.
16B	.	.
16A	.	.
16GJJ	.	.
16FLL	4cc 4ee	.
16E	.	.
16D	.	.
16CJJ)	.	.
=54	=54	=
1F 1A	16ddLL	<
.	16d	.
.	16e	.
.	16fJJ	.
.	16gLL	.
.	16a	.
.	16b	.
.	16cc#JJ	.
.	16ddLL	.
.	16a	.
.	16b	.
.	16cc#JJ	.
.	16ddLL	.
.	16ee	.
.	16ff	.
.	16ggJJ	.
=55	=55	=
4.F	16aaLL	.
.	16bb	.
.	16cccn	.
.	16bbJJ	.
.	16aaLL	.
.	16gg	.
8G	16ff	.
.	16eeJJ	.
4.A	16ffLL	.
.	16gg	.
.	16aa	.
.	16ggJJ	.
.	16ffLL	.
.	16ee	.
8F#	16dd	.
.	16ccJJ	.
=56	=56	=
(16GGLL	8b'L	f
16BB	.	.
16D	8gg'	.
16GJJ	.	.
16GGLL	8ee'	.
16C	.	.
16E	8cc'J	.
16GJJ	.	.
16GGLL	8dd'L	.
16BB	.	.
16D	8gg'	.
16GJJ	.	.
16GGLL	8ee'	.
16C	.	.
16E	8cc'J	.
16GJJ	.	.
=57	=57	=
4GG')	4dd'	.
4G'	4b' 4dd' 4gg'	.
4GG'	4g'	.
4r	4r	.
*clefG2	*	*
=58	=58	=
!LO:TX:i:t=legato	!	!
16f#LL	1r	p
16g	.	.
16f#	.	.
16gJJ	.	.
16f#LL	.	.
16g	.	.
16f#	.	.
16gJJ	.	.
16fnLL	.	.
16g	.	.
16f	.	.
16gJJ	.	.
16fLL	.	.
16g	.	.
16f	.	.
16gJJ	.	.
=59	=59	=
16eLL	(8ggL	.
16g	.	.
16e	8eeJ)	.
16gJJ	.	.
16eLL	(4.cc	.
16g	.	.
16e	.	.
16gJJ	.	.
16eLL	.	.
16g	.	.
16e	16ddLL	.
16gJJ	16eeJJ	.
16eLL	8ddL)	.
16g	.	.
16e	8cc'J	.
16gJJ	.	.
=60	=60	=
16fLL	(8.ccTL	.
16g	.	.
16e	.	.
16gJJ	16bJk)	.
16dLL	4b	.
16g	.	.
16e	.	.
16gJJ	.	.
16fLL	2r	.
16g	.	.
16e	.	.
16gJJ	.	.
16fLL	.	.
16g	.	.
16d	.	.
16gJJ	.	.
=61	=61	=
16eLL	(8ggL	.
16g	.	.
16e	8eeJ)	.
16gJJ	.	.
16eLL	(4.cc	.
16g	.	.
16e	.	.
16gJJ	.	.
16eLL	.	.
16g	.	.
16e	16ddLL	.
16gJJ	16eeJJ	.
16eLL	8ddL)	.
16g	.	.
16e	8cc'J	.
16gJJ	.	.
=62	=62	=
16fLL	(8.ccTL	.
16g	.	.
16e	.	.
16gJJ	16bJk)	.
16dLL	4b	.
16g	.	.
16e	.	.
16gJJ	.	.
16fLL	2r	.
16g	.	.
16e	.	.
16gJJ	.	.
16fLL	.	.
16g	.	.
16d	.	.
16gJJ	.	.
*clefF4	*	*
=63	=63	=
16r	4gg	.
(16ELL	.	.
16G	.	.
16cJJ	.	.
4e)	16r	.
.	(16ggLL	.
.	16ee	.
.	16ccJJ	.
16r	4a)	.
(16FLL	.	.
16A	.	.
16cJJ	.	.
4f)	16r	.
.	(16aLL	.
.	16cc	.
.	16aJJ	.
=64	=64	=
16r	4ff)	.
(16DLL	.	.
16F	.	.
16BJJ	.	.
4d)	16r	.
.	(16ffLL	.
.	16dd	.
.	16bJJ	.
16r	4g)	.
(16ELL	.	.
16G	.	.
16BJJ	.	.
4e)	16r	.
.	(16ggLL	.
.	16bb	.
.	16ggJJ	.
*clefG2	*	*
=65	=65	=
16r	4eee)	.
(16cLL	.	.
16e	.	.
16aJJ	.	.
4cc)	16r	.
.	(16eeeLL	.
.	16ccc	.
.	16aaJJ	.
16r	4ff)	.
(16dLL	.	.
16f	.	.
16aJJ	.	.
4dd)	16r	.
.	(16ffLL	.
.	16aa	.
.	16ffJJ	.
=66	=66	=
16r	4ddd)	.
(16BLL	.	.
16d	.	.
16gJJ	.	.
4b)	16r	.
.	(16dddLL	.
.	16bb	.
.	16ggJJ	.
16r	4ee)	.
(16cLL	.	.
16e	.	.
16gJJ	.	.
4cc)	16r	.
.	(16cccLL	.
.	16gg	.
.	16eeJJ	.
=67	=67	=
8r	2dd)	.
8f 8aL	.	.
8f 8a	.	.
8f 8aJ	.	.
8f 8aL	(16cc#Lk	<
.	8.ddJ)	.
8f 8a	.	.
8f 8a	(16cc#Lk	.
.	8.ddJ)	.
8f 8aJ	.	.
*clefF4	*	*
=68	=68	=
8r	2aa	.
8F# 8c 8e-L	.	.
8F# 8c 8e-	.	.
8F# 8c 8e-J	.	.
8F# 8c 8e-L	(16gg#Lk	.
.	8.aaJ)	.
8F# 8c 8e-	.	.
8F# 8c 8e-	(16gg#Lk	.
.	8.aaJ)	.
8F# 8c 8e-J	.	.
=69	=69	=
(16GLL	(8ggnL	.
16en	.	.
16c	16aaL	.
16eJJ	16bbJJ	.
16GLL	16cccLL	.
16e	16ddd	.
16c	16eee	.
16eJJ	16dddJJ	.
16GLL	16cccLL	.
16e	16bb	.
16c	16aa	.
16eJJ	16ggJJ	.
16GLL	16ffLL	.
16e	16ee	.
16c	16dd	.
16eJJ	16ccJJ	.
=70	=70	=
16GLL	1ddTT	.
16f	.	.
16B	.	.
16fJJ	.	.
16GLL	.	.
16f	.	.
16B	.	.
16fJJ	.	.
16GLL	.	.
16f	.	.
16B	.	.
16fJJ	.	.
16GLL	.	.
16f	.	.
16B	.	.
16fJJ	.	.
.	16ccqLL	.
.	16ddqJJ	.
=71	=71	=
4c 4e)	4cc)	f
4r	(16ccLL	.
.	16g	.
.	16cc	.
.	16eeJJ	.
4r	16ggLL	.
.	16ee	.
.	16cc	.
.	16eeJJ	.
(4G 4d 4f	16ffLL	.
.	16dd	.
.	16b	.
.	16ddJJ	.
=72	=72	=
4c' 4e')	4cc)	.
4r	(16cLL	.
.	16G	.
.	16c	.
.	16eJJ	.
4r	16gLL	.
.	16e	.
.	16c	.
.	16eJJ	.
(4GG 4D 4F	16fLL	.
.	16d	.
.	16B	.
.	16dJJ	.
=73	=73	=
4C' 4E')	4c)	.
4C' 4c'	4ee' 4gg' 4ccc'	.
4CC' 4C'	4cc'	.
4r	4r	.
==:|!	==:|!	=
*-	*-	*-
!!!RDF**kern: > = above
!!!RDF**kern: < = below
!!!YOR: Alte Mozart-Ausgabe, Band 20, Breitkopf &amp; H&auml;rtel 1877-1883.
!!!YOY: 1878
!!!YEC: 2018 Craig Stuart Sapp
!!!YEM: Licence: (CC BY-NC-SA 4.0) https://creativecommons.org/licenses/by-nc-sa/4.0
!!!YER: 2018
!!!ENC: Craig Stuart Sapp
!!!END: 2004/10/26
!!!EED: Craig Stuart Sapp
!!!EEV: 2018/06/20
!!!EFL: 61/69
!!!AGN: piano sonata
!!!AFR: sonata-allegro
!!!title: @{OTL}, @{SCT1}, mvmt. @{OMV}
